X:1
T:Morning Air, The
M:6/8
L:1/8
R:Air
N:"Gaily"
S:O'Neill - Music of Ireland (1903), No. 109
Z:AK/Fiddler's Companion
K:Gmin
"Gaily"D|G2G G^FD|GAG G^FD|=FGF B2D|F3 D2^F|
G2A B2G|{A}c2 B AG^F|G2 A/B/ AG^F|G3 G2||
z|d2 d dcB|d3 f2z|FGF B2D|F3 D2^F|
G2A B2G|{A}c2 B AG^F|GAB AG^F|G3 G2||

